packages/icons/svg/User_Card_Gift_32px.svg

<svg xmlns="http://www.w3.org/2000/svg" viewBox="0 0 32 32"><path d="M25 11h-1.56A3.91 3.91 0 0024 9a4 4 0 00-8 0 4 4 0 00-8 0 3.91 3.91 0 00.56 2H7a2 2 0 00-2 2v12a2 2 0 002 2h18a2 2 0 002-2V13a2 2 0 00-2-2zM12 7a2 2 0 012 2v2h-2a2 2 0 010-4zm3 18H7v-5h8zm0-7H7v-5h8zm3-9a2 2 0 112 2h-2zm-1 4h8v5h-8zm0 12v-5h8v5z"/></svg>

<svg xmlns="http://www.w3.org/2000/svg" viewBox="0 0 32 32"><defs></defs><g id="Icon"><path  d="M25,11H23.44A3.91,3.91,0,0,0,24,9a4,4,0,0,0-8,0A4,4,0,0,0,8,9a3.91,3.91,0,0,0,.56,2H7a2,2,0,0,0-2,2V25a2,2,0,0,0,2,2H25a2,2,0,0,0,2-2V13A2,2,0,0,0,25,11ZM12,7a2,2,0,0,1,2,2v2H12a2,2,0,0,1,0-4Zm3,18H7V20h8Zm0-7H7V13h8Zm3-9a2,2,0,1,1,2,2H18Zm-1,4h8v5H17Zm0,12V20h8v5Z"/></g></svg>
